X:1
T:20 Mélodies
T:La princesse sans cœur
T:16. La princesse sans cœur
T:20 Mélodies 
T:Augusta Holmès
T:(Holmès)
T:OpenScore (CC0)
T:OpenScore (CC0)
T:OpenScore (CC0)
T:OpenScore (CC0)
T:OpenScore (CC0)
T:OpenScore (CC0)
C:Holmès, Augusta Mary Anne
Z:OpenScore (CC0)
%%score 1 { ( 2 5 ) | ( 3 4 6 ) }
L:1/8
Q:1/4=120
M:4/4
K:B
V:1 treble nm="Chant"
V:2 treble nm="Piano"
V:5 treble 
V:3 treble 
V:4 treble 
V:6 treble 
V:1
"^Allegro moderato." z8 | z8 | z8 | z8 | z8 | z8 | z8 | z8 | z8 | %9
w: |||||||||
"^Chant" z4 z2 z z/!p!"^misterioso" =G/ | F2 =G2 F2 G G | F2 =G G F2 z G | F F =G G ^G2 =A2 | %13
w: A-|vez- vous vu dans le|bois, cet- te nuit, Pas-|\- ser comme un ra- yon lu-|
 ^A2 c c G z F F |!p! B3 B B2 B B | (=d4 =F2) F F | B2 =D D D3 D | F4- F2 z2 | z8 | z8 | %20
w: nai- re, Sans bruit, U- ne|for- me blanche et lé-|\- gè- re Qu'un fan-|tôme ac- com- pagne et|suit? _|||
 z4 z2 F F |!<(! (F2!<)!!mf!!>(! =G2!>)!!p! F) z G G |!<(! (^G2!<)!!mf!!>(! =A2!>)!!p! G2) z2 | %23
w: El- le|cueil- * le, Feuille à|feuil- * le,|
 z!p!!<(! G =A!<)!!mf!!>(! A!>)!!p! G2 A2 |!<(! A2!<)! B2 A A A A |"^cresc." d d d d =d2 d d | %26
w: Pa- ti- em- ment, dans|les ga- zons, Les mal- fai-|san- tes flo- rai- sons Dont l'en-|
 ^c4 =c c c c | B B B B _B"^cresc." B B B | =A4 _A A A A | =G2 G G!f! e2 F F | =F4 E2 E2 || %31
w: \- fer ti- re ses poi-|sons Qui font tom- ber en pa- moi-|sons Les in- for- tu-|\- nés qu'elle ac- cueil- le De|ses tra- hi-|
[K:Ab] E8- | E2 z2 z4 | z4 z2 z"^Agitato" E |"^cresc." c2 c2 z2 c c | c c c4 c2 || %36
w: sons! |_|C'est|El- le qu'il me|faut ai- mer et|
[M:3/4]!f! (!^!c2 !^!e2 !^!d/) z/ E ||[M:4/4]"^Agitato" d2- d/"^cresc." d/ d/ d/ d2 z d | %38
w: sui- * vre! C'est|El- * le que je hais! C'est|
 d3 d z d2 d ||[M:3/4]!f! (!^!d2 !^!f2 !^!=e2) ||[M:2/4] z2 z c ||[M:4/4] f2 f2 z2 f f || %42
w: El- le qui m'en-|i- * vre!|C'est|El- le qu'il me|
[M:3/4] f f f2 z !^!f- ||[M:2/4] f !^!f2 !^!f || %44
w: faut tu- er Si|_ je veux|
[M:3/4]!ff! !^!!fermata!a2 g z"^rall."[Q:1/4=114] f =d | %45
w: vi- vre... L'in- fer-|
"^molto"!f![Q:1/4=108]!>(! _c2 !tenuto!B !tenuto!A !tenuto!B!p! !tenuto!c!>)! || %46
w: nale et ma- gi- que|
[K:C][M:4/4][Q:1/4=92]"^Andante"!p! (G8 |[Q:1/4=95]"^rall." ^F4-) F2 z F || %48
w: fleur! |_ _ C'est|
[K:B][Q:1/4=116]"^1º Tempo  (un peu moins vite)" !tenuto!B2 !tenuto!=G2 !tenuto!F2 F F | %49
w: la traî- tres- se, l'en|
 !tenuto!B2 !tenuto!=G2 !tenuto!F2 F2 |!<(! =G2 ^G2 (3A2 ^A2 B2!<)! |!>(! e2 A2!>)!{GA} G2!f! F F | %52
w: \- chan- te- res- se,|Qui tor- ture et sé-|\- duit sans ces- se! C'est|
 !tenuto!_e2 !tenuto!_c2 !tenuto!_B2 B B | !tenuto!_e2 !tenuto!_c2 !tenuto!_B2 B B |!ff! (f8 | %55
w: la traî- tres- se, L'en-|\- chan- te- res- se, C'est|la|
 =g6) =G2 | F8 | G2 z2"^poco rall."[Q:1/4=110] (c4 |"^a Tempo."[Q:1/4=120] B4-) B2 z2 | z8 | z8 | %61
w: _ prin-|ces-|\- se Sans|Cœur! _|||
 z8 | z8 | z8 | z8 | z8 | z8 | z8 |] %68
w: |||||||
V:2
 x8 | x8 | z2!8va(! z/ (=g'/=b'/=d''/ ^f'') z z/ (=f'/=a'/=c''/ | %3
 e'') z z/ (_e'/=g'/_b'/ =d'') z z/ (c'/^e'/^g'/ | =c'') z z/ (b/d'/f'/ _b') z z/ (=a/c'/e'/ | %5
 _a') z z/ (=g/b/=d'/ ^f') z z/"_poco" (g/b/d'/ | ^f') z z/ (=g/b/=d'/ ^f') z z/ (g/b/d'/ | %7
 ^f') z z/ (=g/b/=d'/ ^f') z z/ (g/b/d'/) |!f!"_dim." !trill(!T=g'8 |!>(! !trill(!T=g'8!>)! | %10
!pp! f'!8va)! z z/ (=f/=g/b/ d') z z/ (f/g/b/ | d') z z/ (=f/=g/b/ d') z z/ (f/g/b/ | %12
!pp! d') z!<(! z/ (e/=g/c'/ e') z z/ (e/=a/c'/!<)! | %13
!mp!!>(! e') z z/ (e/f/a/ e') z!>)! z/ (e/a/c'/ |!pp! =f') z z/ (=f/=g/b/ f') z z/ (f/g/b/ | %15
 =f') z z/ (=f/=g/b/ f') z z/ (f/g/b/ | =f') z z/ (=f/=g/b/ f') z z/ (f/g/b/) | %17
!pp! (^f2 =g2 (3^g2 =a2 ^a2 | e'2 a2{[eg]a} g2 f2) |"_dim." (e'2 a2{[eg]a} g2 f2) | %20
!ppp! (e'2 a2({ga)} g2 f2) | z2!pp! (B/"_leggiero"!>(!=d/=g/b/!>)! f2) z2 | %22
 z2 (^B/!>(!d/f/=a/!>)! g2) z2 | z2 (c/!>(!^e/=a/c'/!>)! g2) z2 | z2 (=d/!>(!^e/g/b/!>)! a2) z2 | %25
!pp!"_cresc." !trill(!Tc'4 !trill(!T=c'4 | !trill(!Tb4 !trill(!T_b4 | %27
 !trill(!T=a4"_cresc." !trill(!T_a4 | !trill(!T=g4 !trill(!T_g4 | !trill(!T=f4 !trill(!Te4 | %30
 !trill(!T_e4 !trill(!T=d4 ||[K:Ab]!f!!<(! (e2 =e2 (3f2 _g2 =g2)!<)! | %32
!ff! ([dd']2 [dg]2{[df]g} [df]2 [de]2) | ([dd']2 [dg]2{[df]g} [df]2 [de]2) | %34
!mf!"_cresc." [CEc] [C=Ec]2 [CFc]2 [CEc][CFc][C_Gc] | %35
!<(! [C=Gc][C_Gc][C=Gc][CAc] !>![=Ac]!>![Bc]!>!=B!>!c-!<)! ||[M:3/4]!f! c2 !>!e2 !>!d2 || %37
[M:4/4]!mf!"^Agitato""_cresc." [DEd] [D=Ed]2 [DFd]2 [DEd][DFd][D_Gd] | %38
!<(! [D=Gd][D_Gd][D=Gd][DAd] !>![=Ad]!>![Bd] (3!>![=Bd]!>!c!>!d-!<)! || %39
[M:3/4]!f! d2 !^!f2 !^!=e2 ||[M:2/4] z2 !^![=EBc]2 || %41
[M:4/4]"_cresc." [FAf] [F=Af]2 [F_Bf]2 [F=Bf][Fcf][FBf] || %42
[M:3/4] [Fcf][Fdf][F=df][Fef][F=ef][Ff] ||[M:2/4] [_G_g][=G=g] (3[Aa][=A=a][Bb] || %44
[M:3/4]!ff! [=B=b]2 z2 z2 | z6 ||[K:C][M:4/4]!pp!"^Andante"!>(! (!///-!f'2 b2 !///-!f'2 b2)!>)! | %47
!>(!"^rall." (!///-!e'2 ^a2 !///-!e'2 a2)!>)! || %48
[K:B]!pp!"^1º Tempo  (un peu moins vite)" [bd'] z (B/!>(!=d/=g/b/)!>)! !trill(!Tf2{/^e} f z | %49
 z2 (B/=d/=g/b/) !trill(!Tf2{/^e} f z |!pp!!>(! (!///-!!>!=f2 B2!>)! !///-!f2 B2) | %51
!pp!!>(! (!///-!!>!e2 A2!>)! !///-!e2 A2) |!f! z2 (_e/=g/_c'/_e'/) !trill(!T_b2{/=a} b z | %53
 z2 (_e/!>(!=g/_c'/_e'/)!>)! !trill(!T_b2{/=a} b z | %54
!f!!<(! !^![ff']2 !^![=gf']2 (3!^![^gf']2 !^![=af']2 !^![^af']2!<)! | %55
!ff!!>(! ([b=g']2 [=gc']2({[=gb]c')} [gb]2 [g=a]2)!>)! | %56
!f!!<(! !^![dfd']2 !^![d^^fd']2 (3!^![dgd']2 !^![d=ad']2 !^![d^ad']2!<)! | %57
!>(! ([eae']2 [ea]2"^poco rall."({[eg]a)} [eg]2 [ef]2)!>)! | %58
!mf!"^a Tempo." z2!<(! (B/=d/=g/b/)!<)!!p! !trill(!Tf2{/^e} f z | %59
!p! z2!<(! (B/=d/=g/b/)!<)!!p! !trill(!Tf2{/^e} f z | %60
!ppp!"_lusingando" ([=f=g]2 [f^g]2 (3[f=a]2 [f^a]2 [fb]2 | [ee']2 [ea]2({[eg]a)} [eg]2 [ef]2) | %62
!p! z2!<(! (B/=d/=g/b/)!<)!!p! !trill(!Tf2{/^e} f z | %63
 z2!pp!!<(! (B/=d/=g/b/)!<)!!p!!>(! !trill(!Tf2!>)!!pp!{/^e} f z | z8 | %65
[K:bass]!ppp! !tenuto![C,^^F,]8 | !tenuto![=D,B,]8- | [=D,B,]2 z2 !fermata!z4 |] %68
V:3
"_una corda""^M.G." !arpeggio!!^![g^bd'f']4"^M.D.""^M.G."{/=a} !arpeggio!!^![gbd'f']4 | %1
"^M.G.""^M.D."{/=a} !arpeggio!!^![g^bd'f']4"^M.D.""^M.G."{/=a} !arpeggio!!^![gbd'f']4 | %2
"^M.G.""^M.D."({/=a} !arpeggio![g^bd'f']2 !arpeggio![=g=b=d'=f']2 !arpeggio![f^ac'e']2 !arpeggio![=f=a=c'_e']2 | %3
 !arpeggio![egb=d']2 !arpeggio![_e=g_b_d']2 !arpeggio![=df=a=c']2 !arpeggio![^c^e^g=b]2 | %4
 !arpeggio![=c=e=g_b]2 !arpeggio![Bdf=a]2 !arpeggio![_B=d=f_a]2 !arpeggio![=A^ce=g]2 | %5
 !arpeggio![_A=c_e_g]2 !arpeggio![=GB=d=f]2 !arpeggio![^F^A^c_e]2 !arpeggio!!^![=GB=d=f]2 | %6
 !arpeggio![^FAce]2)!>(! (!arpeggio!!^![=GB=d=f]2!>)!!mp! !arpeggio![^FAce]2)!mf!!>(! (!arpeggio!!^![GBdf]2!>)! | %7
!mp! !arpeggio![^FAce]2)!mf!!>(! (!arpeggio!!^![=FB=d=f]2!>)!!mp! !arpeggio![^FAce]2)!<(! !arpeggio!!^![=FBd=f]2!<)! | %8
 !arpeggio!!^![=F=A=c_e]8 |{=F-=G-=A-=c-} !^![FGAc_e]4{F-G-A-c-} !^![FGAce]4 | %10
 (!arpeggio![^FB^d]2 !arpeggio![=FB=d]2 !arpeggio![^FB^d]2 !arpeggio![=FB=d]2 | %11
 !arpeggio![^FB^d]2 !arpeggio![=FB=d]2 !arpeggio![^FB^d]2 !arpeggio![=FB=d]2) | %12
 [B^d] z =G2 ^G2 =A2 | ^A2 c2 G2 F2 | =G2 ^F2 G2 ^F2 | =G2 ^F2 G2 ^F2 | =G2 ^F2 G2 ^F2 | %17
[K:bass]"_una corda"!ped! z2 (^E2 =E2 C2!ped-up! |!ped! (3F,2 A,2 C2 (3E2 ^E2 F2!ped-up! | %19
[K:treble]!ped! (3=G2 ^G2 =A2 (3^A2 B2 ^B2!ped-up! |!ped! (3c2 =d2 ^d2 (3e2 ^e2 f2)!ped-up! | %21
[K:bass]!ped! z2 ([B,-=D]2 [B,^D]2)!ped-up! z2 |!ped! z2 [^B,^F]2- [B,F]2!ped-up! z2 | %23
!ped! z2 [C^E]2- [CE]2!ped-up! z2 |!ped! z2 [^EG]2- [EG]2!ped-up! z2 | %25
[K:treble] !arpeggio!D2 D2 !arpeggio!=D2 D2 | !arpeggio!C2 C2 !arpeggio!=C2 C2 | %27
 !arpeggio!B,2 B,2 !arpeggio!_B,2 B,2 | !arpeggio!=A,2 A,2 !arpeggio!_A,2 A,2 | %29
[K:bass] !arpeggio!=G,2 G,2 !arpeggio!^F,2 F,2 | !arpeggio!=F,2 F,2 !arpeggio!=E,2 E,2 || %31
[K:Ab]!ped! z/ (E,/G,/B,/ D/B,/D/E/ G/E/D/B,/)!ped-up! z2 | %32
!ped! z/ (E,/G,/B,/ D/B,/D/E/ G/!ped-up!E/D/B,/) z2 | %33
!ped! z/ (E,/G,/B,/ D/B,/D/E/ G/!ped-up!E/D/B,/) z2 | E, !>!=E,2 !>!F,2 !>!E,!>!F,!>!_G, | %35
 !>!=G,!>!_G,!>!=G,!>!A, !>!=A,!>!B,!>!=B,!>!C ||[M:3/4]!ped! z2 !^!E2 !^!D2!ped-up! || %37
[M:4/4]!ff!!ped! E, !>!=E,2 !>!F,2 !>!E,!>!F,!>!_G, | %38
 !>!=G,!>!_G,!>!=G,!>!A, !>!=A,!>!B, (3!>!=B,!>!C!>!D!ped-up! ||[M:3/4]!ff! z2 !^!F2 !^!=E2 || %40
[M:2/4]!ped! z2 !^!C2!ped-up! ||[M:4/4] F, !>!_G,2 !>!=G,2 !>!A,!>!=A,!>!_A, || %42
[M:3/4] !>!=A,!>!B,!>!=B,!>!C!>!D!>!=D ||[M:2/4] !>!E!>!=E (3!>!F!>!_G!>!=G || %44
[M:3/4][K:treble] [=B,=DFA]2 z2 z2 | z6 ||[K:C][M:4/4]"^una corda"!>(! (G2 ^G2 (3A2 ^A2 B2 | %47
 e2 ^A2({^GA)} G2!>)! ^F2) ||[K:B][K:bass]!ped! z2 (!arpeggio![B,-=D]2 [B,^D]2-)!ped-up! [B,D] z | %49
!ped! z2 ([B,-=D]2 [B,^D]2-)!ped-up! [B,D] z |!ped! z2 (5:4:5z/ =G,/B,/=D/=F/ =G2!ped-up! z2 | %51
!ped! z2 (5:4:5z/ (F,/A,/C/E/) F2!ped-up! z2 | %52
!ped! z2 !arpeggio![=A,_E-=G-]2 [_B,EG]2-!ped-up! [B,EG] z | %53
!ped! z2 !arpeggio![=A,_E-=G-]2 [_B,EG]2-!ped-up! [B,EG] z | %54
 z2 z/ =A,/=D/F/ (5:4:5=A/F/A/F/D/ A, z |!ped! z2 z/ (=A,/C/E/ (5:4:5=G/E/G/E/C/)!ped-up! A, z | %56
!ped! z2 z/ (F,/B,/D/ (5:4:5F/D/F/D/B,/)!ped-up! F, z | %57
!ped! z2 z/ (F,/A,/C/ (5:4:5E/!ped-up!C/E/C/A,/) F, z | %58
!ped! z2 ((!arpeggio![=F,B,=D]2 [^F,B,^D]2-))!ped-up! [F,B,D] z | %59
!ped! z2 (!arpeggio![=F,^B,-=D]2 [^F,B,^D]2-)!ped-up! [F,B,D] z | %60
"_una corda"!ped! z2 (5:4:5z/ =G,/B,/=D/=F/ =G2!ped-up! z2 | %61
!ped! z2 (5:4:5z/ F,/A,/C/E/ F2!ped-up! z2 | %62
!ped! z2 (!arpeggio![=F,B,-=D]2 [^F,B,^D]2-)!ped-up! [F,B,D] z | %63
!ped! z2 (!arpeggio![=F,B,-=D]2 [^F,B,^D]2-)!ped-up! [F,B,D] z | z8 | !tenuto![D,,A,,]8 | %66
 !tenuto![=B,,,^F,,]8- | [B,,,F,,]2 z2 !fermata!z4 |] %68
V:4
 x8 | x8 | x8 | x8 | x8 | x8 | x8 | x8 | x8 | x8 | x8 | x8 | !arpeggio!^F8- | F8 | %14
 [=D=FB]4 [D=FB]4 | [=D=FB]4 [D=FB]4 | [=D=FB]4 [=D^FB]4 |[K:bass] [F,,,F,,]8- | %18
 [F,,,F,,]6- [F,,,F,,] z |[K:treble] x8 | x8 |[K:bass] x2 (!arpeggio!=F,2 ^F,2) z2 | %22
 x2 (!arpeggio!^^F,2 G,2) z2 | x2 (!arpeggio!^^F,2 G,2) z2 | x2 (!arpeggio!^^G,2 A,2) z2 | %25
[K:treble] [^^FAc]4 [^F=A=c]4 | [^EGB]4 [=E=G_B]4 | [DF=A]4 [=D=F_A]4 | [CE=G]4 [=C_E_G]4 | %29
[K:bass] [=B,D=F]4 [A,CE]4 | [=A,=C_E]4 [G,B,=D]4 ||[K:Ab] E,,4- E,,2 x2 | E,,4- E,,2 x2 | %33
 E,,4- E,,2 x2 | A,,8- | A,,8 ||[M:3/4] [E,,E,]4- [E,,E,]2 ||[M:4/4] E,,8- | E,,8 || %39
[M:3/4] [C,,C,]4- [C,,C,]2 ||[M:2/4] [C,,C,]4 ||[M:4/4] F,,8- ||[M:3/4] F,,6 ||[M:2/4] x4 || %44
[M:3/4][K:treble] x6 | x6 ||[K:C][M:4/4] x8 | x8 ||[K:B][K:bass] x2 (=F,2 ^F,2-) F, x | %49
 x2 (!arpeggio!=F,2 ^F,2-) F, x | =G,,,4- G,,,2 z2 | F,,4- F,,2 z2 | _E,,4- E,,2 z2 | %53
 _E,,4- E,,2 z2 | =D,,4- D,,2 z2 | =A,,,4- A,,,2 z2 | F,,4- F,,2 z2 | F,,4- F,,2 z2 | %58
 B,,,4- B,,,2 z2 | B,,,4- B,,,2 z2 | =G,,,4- G,,,2 x2 | F,,,4- F,,,2 x2 | B,,,4- B,,,2 z2 | %63
 B,,,4- B,,,2 z2 | x8 | x8 | x8 | x8 |] %68
V:5
 x8 | x8 | x2!8va(! x6 | x8 | x8 | x8 | x8 | x8 | x8 | x8 | x!8va)! x7 | x8 | x8 | x8 | x8 | x8 | %16
 x8 | e2 e2 e2 e2 | e2 e2 e2 e2 | e2 e2 e2 e2 | e2 e2 x2 x2 | x8 | x8 | x8 | x8 | x8 | x8 | x8 | %28
 x8 | x8 | x8 ||[K:Ab] d2 d2 (3d2 d2 d2 | x8 | x8 | x8 | x8 ||[M:3/4] ^F4 G2 ||[M:4/4] x8 | x8 || %39
[M:3/4] [GB]4 [GB]2 ||[M:2/4] x4 ||[M:4/4] x8 ||[M:3/4] x6 ||[M:2/4] x4 ||[M:3/4] x6 | x6 || %46
[K:C][M:4/4] x8 | x8 ||[K:B] x8 | x8 | x8 | x8 | x8 | x8 | x8 | x8 | x8 | x8 | x8 | x8 | x8 | x8 | %62
 x8 | x8 | x8 |[K:bass] x8 | x8 | x8 |] %68
V:6
 x8 | x8 | x8 | x8 | x8 | x8 | x8 | x8 | x8 | x8 | x8 | x8 | x8 | x8 | x8 | x8 | x8 |[K:bass] x8 | %18
 x8 |[K:treble] x8 | x8 |[K:bass] B,,,4- B,,,2 x2 | G,,,4- G,,,2 z2 | C,,4- C,,2 z2 | %24
 A,,,4- A,,,2 z2 |[K:treble] x8 | x8 | x8 | x8 |[K:bass] x8 | x8 ||[K:Ab] x8 | x8 | x8 | x8 | x8 || %36
[M:3/4] x6 ||[M:4/4] x8 | x8 ||[M:3/4] x6 ||[M:2/4] x4 ||[M:4/4] x8 ||[M:3/4] x6 ||[M:2/4] x4 || %44
[M:3/4][K:treble] x6 | x6 ||[K:C][M:4/4] x8 | x8 ||[K:B][K:bass] B,,,4- B,,,2 z2 | %49
 B,,,4- B,,,2 z2 | x8 | x8 | x2 x6 | x2 x6 | x2 x6 | x2 x6 | x2 x6 | x2 x6 | x2 x5 x | x2 x5 x | %60
 x2 x6 | x2 x6 | x2 x5 x | x2 x5 x | x8 | x8 | x8 | x8 |] %68

